public/images/icons/nayakayp-instagram.svg

<svg width="60" height="60" viewBox="0 0 60 60" fill="none" xmlns="http://www.w3.org/2000/svg">
<g clip-path="url(#clip0_187:565)">
<path d="M29.9919 19.9954C24.4833 19.9954 19.9879 24.4908 19.9879 29.9994C19.9879 35.5081 24.4833 40.0035 29.9919 40.0035C35.5006 40.0035 39.996 35.5081 39.996 29.9994C39.996 24.4908 35.5006 19.9954 29.9919 19.9954ZM59.9967 29.9994C59.9967 25.8567 60.0342 21.7515 59.8015 17.6163C59.5689 12.8132 58.4732 8.55035 54.9608 5.03804C51.441 1.51823 47.1857 0.430013 42.3826 0.19736C38.2399 -0.0352925 34.1347 0.0022323 29.9994 0.0022323C25.8567 0.0022323 21.7515 -0.0352925 17.6163 0.19736C12.8132 0.430013 8.55035 1.52573 5.03804 5.03804C1.51823 8.55785 0.430013 12.8132 0.19736 17.6163C-0.0352925 21.759 0.0022323 25.8642 0.0022323 29.9994C0.0022323 34.1347 -0.0352925 38.2474 0.19736 42.3826C0.430013 47.1857 1.52573 51.4485 5.03804 54.9608C8.55785 58.4807 12.8132 59.5689 17.6163 59.8015C21.759 60.0342 25.8642 59.9967 29.9994 59.9967C34.1422 59.9967 38.2474 60.0342 42.3826 59.8015C47.1857 59.5689 51.4485 58.4732 54.9608 54.9608C58.4807 51.441 59.5689 47.1857 59.8015 42.3826C60.0417 38.2474 59.9967 34.1422 59.9967 29.9994ZM29.9919 45.3921C21.4738 45.3921 14.5993 38.5175 14.5993 29.9994C14.5993 21.4813 21.4738 14.6068 29.9919 14.6068C38.51 14.6068 45.3845 21.4813 45.3845 29.9994C45.3845 38.5175 38.51 45.3921 29.9919 45.3921ZM46.015 17.5713C44.0262 17.5713 42.4201 15.9652 42.4201 13.9764C42.4201 11.9876 44.0262 10.3816 46.015 10.3816C48.0038 10.3816 49.6098 11.9876 49.6098 13.9764C49.6104 14.4487 49.5178 14.9164 49.3374 15.3528C49.1569 15.7892 48.8922 16.1858 48.5582 16.5197C48.2243 16.8536 47.8278 17.1184 47.3914 17.2988C46.9549 17.4793 46.4872 17.5719 46.015 17.5713Z" fill="#0C2C38"/>
</g>
<defs>
<clipPath id="clip0_187:565">
<rect width="60" height="59.9989" fill="white"/>
</clipPath>
</defs>
</svg>

<svg viewBox="0 0 60 60" fill="none" xmlns="http://www.w3.org/2000/svg">
    <g clip-path="url(#a)">
        <path
            d="M29.992 19.995c-5.509 0-10.004 4.496-10.004 10.004 0 5.51 4.495 10.005 10.004 10.005 5.509 0 10.004-4.496 10.004-10.005 0-5.508-4.495-10.004-10.004-10.004ZM59.997 30c0-4.142.037-8.247-.196-12.383-.232-4.803-1.328-9.066-4.84-12.578C51.44 1.518 47.186.43 42.383.198 38.24-.036 34.135.001 29.999.001c-4.142 0-8.247-.037-12.383.195C12.813.43 8.55 1.526 5.038 5.038 1.518 8.558.43 12.813.198 17.616-.036 21.76.001 25.864.001 30c0 4.136-.037 8.248.195 12.384.233 4.803 1.329 9.066 4.841 12.578 3.52 3.52 7.775 4.608 12.578 4.84 4.143.233 8.248.196 12.383.196 4.143 0 8.248.037 12.384-.196 4.803-.232 9.066-1.328 12.578-4.84 3.52-3.52 4.608-7.775 4.84-12.578.24-4.136.196-8.24.196-12.384ZM29.992 45.392A15.371 15.371 0 0 1 14.599 30a15.37 15.37 0 0 1 15.393-15.392 15.37 15.37 0 0 1 15.393 15.392 15.371 15.371 0 0 1-15.393 15.393Zm16.023-27.82a3.59 3.59 0 0 1-3.595-3.596 3.59 3.59 0 0 1 3.595-3.594 3.59 3.59 0 0 1 3.595 3.594 3.59 3.59 0 0 1-3.595 3.595Z"
            fill="#0C2C38" />
    </g>
    <defs>
        <clipPath id="a">
            <path fill="#fff" d="M0 0h60v59.999H0z" />
        </clipPath>
    </defs>
</svg>
